img/vote-down.svg

<svg width="15" height="15" viewBox="0 0 15 15" fill="none" xmlns="http://www.w3.org/2000/svg">
<path fill-rule="evenodd" clip-rule="evenodd" d="M13.5 2.24999C13.9142 2.24999 14.25 2.58578 14.25 2.99999V9.74999C14.25 10.1642 13.9142 10.5 13.5 10.5H12.75C12.3358 10.5 12 10.1642 12 9.74999V2.99999C12 2.58578 12.3358 2.24999 12.75 2.24999H13.5ZM1.97727 10.7906C1.30227 10.7906 0.75 10.1993 0.75 9.47669C0.759695 8.47238 0.783758 7.91845 0.822192 7.81492C0.860626 7.71139 1.49111 6.1192 2.71364 3.03836C2.89773 2.57848 4.40981 2.24999 4.90072 2.24999H9.21C9.885 2.24999 10.875 2.84127 10.875 3.56394V10.5L6.80457 14.7121L6.80226 14.7144C6.44071 15.0859 5.84646 15.094 5.47498 14.7324C5.35227 14.5353 5.22955 14.2726 5.22955 14.0098C5.22955 13.9441 5.22955 13.8784 5.22955 13.8127L5.84318 10.7906H1.97727Z" fill="#BCBFC2"/>
</svg>

<svg width="15" height="15" fill="none" xmlns="http://www.w3.org/2000/svg"><path fill-rule="evenodd" clip-rule="evenodd" d="M13.5 2.25a.75.75 0 01.75.75v6.75a.75.75 0 01-.75.75h-.75a.75.75 0 01-.75-.75V3a.75.75 0 01.75-.75h.75zM1.977 10.79C1.302 10.79.75 10.2.75 9.478c.01-1.005.034-1.559.072-1.662.039-.104.67-1.696 1.892-4.777.184-.46 1.696-.788 2.187-.788H9.21c.675 0 1.665.591 1.665 1.314V10.5l-4.07 4.212-.003.002a.939.939 0 01-1.327.018c-.123-.197-.245-.46-.245-.722v-.197l.613-3.022H1.977z" fill="#BCBFC2"/></svg>
